icons/folder-5-fill.svg

<svg viewBox="0 0 24 24" fill="currentColor" xmlns="http://www.w3.org/2000/svg"><path d="M13.4144 5H20.0002C20.5525 5 21.0002 5.44772 21.0002 6V7H3.00017V4C3.00017 3.44772 3.44789 3 4.00017 3H11.4144L13.4144 5ZM3.08697 9H20.9134C21.4657 9 21.9134 9.44772 21.9134 10C21.9134 10.0277 21.9122 10.0554 21.9099 10.083L21.0766 20.083C21.0334 20.6013 20.6001 21 20.08 21H3.9203C3.40021 21 2.96695 20.6013 2.92376 20.083L2.09042 10.083C2.04456 9.53267 2.45355 9.04932 3.00392 9.00345C3.03155 9.00115 3.05925 9 3.08697 9Z"/></svg>

<svg xmlns="http://www.w3.org/2000/svg" viewBox="0 0 24 24">
    <g>
        <path fill="none" d="M0 0h24v24H0z"/>
        <path d="M13.414 5H20a1 1 0 0 1 1 1v1H3V4a1 1 0 0 1 1-1h7.414l2 2zM3.087 9h17.826a1 1 0 0 1 .997 1.083l-.834 10a1 1 0 0 1-.996.917H3.92a1 1 0 0 1-.996-.917l-.834-10A1 1 0 0 1 3.087 9z"/>
    </g>
</svg>
